!!!!SEGMENT: pl-wnifc--6432-n--001_nowakowski-jozef--mazur-no-1.krn
!!!cenid: 18xx:3924
!!!COM: Nowakowski, Józef
!!!COM-rismID: pe175316
!!!CDT: 1880/09/16-1865/08/27
!!!CNT: Polish
!!!OTL: Mazur No. 1
!!!PDT: 1825
!!!AGN:
!!!YEC: Copyright 2022 Narodowy Instytut Fryderyka Chopina (https://polishscores.org)
!!!YEM: License CC-BY-4.0 (https://creativecommons.org/licenses/by/4.0)
!!!SMS-siglum: PL-Wnifc
!!!SMS-shelfmark: 6432/n
!!!SMS-shelfwork: 001 W
!!!SMS-variant:
!!!SMS-altvar:
!!!NIFC-rismSourceID: 1001134716
!!!NIFC-rismChildID: 1001134718
!!!NIFC-islandoraID: nifc:212700
!!!URL-pdf-islandora: https://repozytorium.nifc.pl/islandora/object/nifc%3A212700/datastream/PDF/view
!!!URL-scan: https://polish.musicsources.pl/pl/lokalizacje/galeria/druki-muzyczne/16851 @EN{Scan on Polish Music Sources Website} @PL{Skany w portalu Dziedzictwo Muzyki Polskiej w otwartym dostępie}
!!!IIIF:
!!!ONB-nifc: UWAGA: w źródle 5 Mazurów (001-005), 4 Anglezy (006-009), 2 Walce (010-011) i Fantaisie Valse (012).
!!!AIN: 1 piano
!!!key: D
**kern	**kern	**dynam
*part1	*part1	*
*staff2	*staff1	*
*>[A,A1,A,A2,B,B,C]	*>[A,A1,A,A2,B,B,C]	*
*>A	*>A	*
*I"Piano-forté.	*I"Piano-forté.	*
*I'	*I'	*
*Ipiano	*Ipiano	*
*ICklav	*ICklav	*
*clefF4	*clefG2	*
*kcancel	*kcancel	*
*k[f#c#]	*k[f#c#]	*
*D:	*D:	*
*M3/8	*M3/8	*
=1	=1	=1
*	*ped	*
!LO:TX:t=P:problem=mixed beam	!	!LO:DY:t=for
8DL 8DD/	(8.aaL 8.ff#\	f
8d 8A 8F#\	.	.
.	16bbL 16gg\	.
8dJ 8A 8F#\	16aa 16ff#\	.
.	16gg#XJJ 16ee#X\)	.
=2	=2	=2
*rep	*	*
!LO:TX:t=P:problem=mixed beam	!	!
8DL 8DD/	(8.aaL 8.ff#\	.
8d 8A 8F#\	.	.
.	16bbL 16gg\	.
8dJ 8A 8F#\	16aa 16ff#\	.
.	16gg#XJJ 16ee#X\)	.
*Xrep	*	*
=3	=3	=3
*rep	*	*
!LO:TX:t=P:problem=mixed beam	!	!
8DL 8DD/	16aaLL 16ff#'\	.
.	16aa'\	.
8d 8A 8F#\	16bb'\	.
.	16ccc#'\	.
8dJ 8A 8F#\	16ddd'\	.
.	16eee'\JJ	.
*Xrep	*	*
=4	=4	=4
8D\	8fff#\	.
4d 4A 4F# 4D^\	4ddd 4ff# 4dd^\	.
=5	=5	=5
.	8qee/	.
16A: 16E: 16C#: 16AA':\	8eee\L	.
16r	.	.
8gL 8e 8c# 8A\	(16ee\L	.
.	16gg\	.
8gJ 8e 8c# 8A\	16ff#\	.
.	16ee\JJ)	.
=6	=6	=6
8dL 8D\	16.bb\LL	.
.	32aa\JJk	.
8f# 8d 8A\	8.ff#\L	.
8f#J 8d 8A\	.	.
.	16dd\Jk	.
=7	=7	=7
8AA\L	16aa\LL	.
.	(16qqa/LL	.
.	16qqb/JJ)	.
.	(16a\	.
8A 8G 8E\	16g#X\	.
.	16a\	.
8AJ 8G 8E\	16b\	.
.	16cc#\JJ)	.
=8	=8	=8
8D\L	16dd'\LL	.
.	16ee'\	.
8A 8F#\	16ff#'\	.
.	16gg'\	.
8AJ 8F#\	16bb'\	.
.	16aa'\JJ	.
=9	=9	=9
.	(16qqccc#/LL	.
.	16qqddd/JJ)	.
16A: 16E: 16C#: 16AA^:\	16eee^\LL	.
16r	(16a\	.
8gL 8e 8c# 8A\	16cc#\	.
.	16ee\	.
8gJ 8e 8c# 8A\	16gg\	.
.	16aa#X\JJ)	.
=10	=10	=10
8dL 8D\	16.bb\LL	.
.	32aa\JJK	.
8f# 8d 8A\	8.ff#\L	.
8f#J 8d 8A\	.	.
.	16dd\Jk	.
=11	=11	=11
8AL 8AA\	16aa\LL	.
.	(16qqa/LL	.
.	16qqb/JJ)	.
.	(16a\	.
8g 8e 8c# 8A\	16g#X\	.
.	16a\	.
8gJ 8e 8c# 8A\	16b\	.
.	16cc#\JJ)	.
!!LO:LB:g=original
=12	=12	=12
!LO:TX:t=1.°	!	!
*>A1	*>A1	*
.	8qee/	.
!LO:TX:t=P:problem=mixed beam	!	!
8f#L 8d\	16dd\LL	.
.	16cc#\	.
8D/J	16dd\	.
.	16ee\	.
8r	16ff#\	.
!	!LO:TX:a:i:t=fois	!
.	16gg\JJ	.
=13:|!|:	=13:|!|:	=13:|!|:
!LO:TX:t=2.°	!	!
*>A2	*	*
!LO:TX:t=P:problem=mixed beam	!	!
8f#L 8d\	16ee\LL	.
.	16dd\JJ	.
8D/J	8dd\	.
!	!LO:TX:a:i:t=fois	!
8r	8r	.
=14	=14	=14
*>B	*>B	*
.	8qff#/	.
!	!LO:TX:b:i:t=dolce	!
8F# 8FF#/	8.fff#\L	.
8eL 8A#X 8F#\	.	.
.	16eee\L	.
8eJ 8A# 8F#\	16ddd\	.
.	16ccc#\JJ	.
=15	=15	=15
8BL 8BB\	16.eee\LL	.
.	32ddd\JJk	.
8d 8B 8F#\	8bb\L	.
8dJ 8B 8F#\	8bb\J	.
=16	=16	=16
8F#L 8FF#\	16.ddd\LL	.
.	32ccc#\JJk	.
8e 8c# 8F#\	8ff#\L	.
8eJ 8c# 8F#\	16gg#X\L	.
.	16aa#X\JJ	.
=17	=17	=17
8BL 8BB\	(32bb\LLL	.
.	32ccc#\	.
.	32bb\	.
.	32aa#X\J	.
8d 8B 8F#\	16bb\	.
.	16ccc#\	.
8BJ 8A 8Fn^\	16ddd\	.
.	16ddd#X\JJ)	.
=18	=18	=18
.	8qee/	.
!LO:TX:t=P:problem=mixed beam	!	!
8EE/L	8.eee\L	.
8d 8G#X 8E\	.	.
.	16ddd\L	.
8dJ 8G# 8E\	16ccc#\	.
.	16bb\JJ	.
=19	=19	=19
.	(16qqaa/LL	.
.	16qqbb/JJ)	.
8AL 8AA\	8ccc#\L	.
8e 8c# 8A\	(16bb\L	.
.	16aa\	.
8eJ 8c# 8A\	16gg#X\	.
.	16ff#\JJ)	.
=20	=20	=20
8EL 8EE\	(16ee\LL	.
.	16ee#X\	.
8d 8B 8E\	16gg#X\	.
.	16ff#\	.
8dJ 8G#X 8E\	16dd\	.
.	16b\JJ)	.
=21	=21	=21
!LO:TX:t=P:problem=mixed beam	!	!
8c#L 8A\	16a'\LL	.
.	16cc#'\	.
8AA/J	16dd'\	.
.	16ee'\	.
8r	16ff#'\	.
.	16gg'\JJ	.
=22	=22	=22
*	*ped	*
!LO:TX:t=P:problem=mixed beam	!	!
8DD/L	(8.aaL 8.ff#\	.
8d 8A 8F#\	.	.
.	16bbL 16gg\	.
8dJ 8A 8F#\	16aa 16ff#\	.
.	16gg#XJJ 16ee#X\)	.
=23	=23	=23
*rep	*	*
!LO:TX:t=P:problem=mixed beam	!	!
8DD/L	(8.aaL 8.ff#\	.
8d 8A 8F#\	.	.
.	16bbL 16gg\	.
8dJ 8A 8F#\	16aa 16ff#\	.
.	16gg#XJJ 16ee#X\)	.
*Xrep	*	*
=24	=24	=24
*rep	*	*
!LO:TX:t=P:problem=mixed beam	!	!
8DD/L	16aaLL 16ff#'\	.
.	16aa'\	.
8d 8A 8F#\	16bb'\	.
.	16ccc#'\	.
8dJ 8A 8F#\	16ddd'\	.
.	16eee'\JJ	.
*Xrep	*	*
=25	=25	=25
8D\	8fff#\	.
4d 4A 4F# 4D^\	4ddd 4ff# 4dd^\	.
!!LO:LB:g=original
=26	=26	=26
.	8qee/	.
!LO:N:vis=8	!	!
16A:KL 16E: 16C#: 16AA:\	8eee\L	.
16r	.	.
8g 8e 8c# 8A\	16ee\L	.
.	16gg\	.
8gJ 8e 8c# 8A\	16ff#\	.
.	16ee\JJ	.
=27	=27	=27
8dL 8D\	16.bb\LL	.
.	32aa\JJk	.
8f# 8d 8A\	8.ff#\L	.
8f#J 8d 8A\	.	.
.	16dd\Jk	.
=28	=28	=28
8AA\L	16aa\LL	.
.	(16qqa/LL	.
.	16qqb/JJ)	.
.	(16a\	.
8A 8G 8E\	16g#X\	.
.	16a\	.
8AJ 8G 8E\	16b\	.
.	16cc#\JJ)	.
=29	=29	=29
8D\L	16dd'\LL	.
.	16ee'\	.
8A 8F#\	16ff#'\	.
.	16gg'\	.
8AJ 8F#\	16bb'\	.
.	16aa'\JJ	.
=30	=30	=30
.	(16qqccc#/LL	.
.	16qqddd/JJ)	.
16A: 16E: 16C#: 16AA:\	16eee\LL	.
16r	(16a\	.
8gL 8e 8c# 8A\	16cc#\	.
.	16ee\	.
8gJ 8e 8c# 8A\	16gg\	.
.	16aa#X\JJ)	.
=31	=31	=31
8dL 8D\	16.bb\LL	.
.	32aa\JJk	.
8f# 8d 8A\	8.ff#\L	.
8f#J 8d 8A\	.	.
.	16dd\Jk	.
=32	=32	=32
8AL 8AA\	16aa\LL	.
.	(16qqa/LL	.
.	16qqb/JJ)	.
.	16a\	.
8g 8e 8c# 8A\	16g#X\	.
.	16a\	.
8gJ 8e 8c# 8A\	16b\	.
.	16cc#X\JJ	.
=33	=33	=33
8f#L 8d\	(16ee\LL	.
.	16dd\JJ)	.
8D\J	8dd\	.
=:|!	=:|!	=:|!
*k[f#]	*k[f#]	*
8r	8dd\	.
=34	=34	=34
.	8qqdd/	.
8GL 8GG\	8.bb\L	.
8d 8B 8G\	.	.
.	16aa\L	.
8dJ 8B 8G\	16gg\	.
.	16ff#\JJ	.
=35	=35	=35
*^	*	*
8C\L	4.C/	16.ff#\LL	.
.	.	32ee\JJk	.
8A 8E\	.	8.aa\L	.
8AJ 8E\	.	.	.
.	.	16gg\Jk	.
=36	=36	=36	=36
!	!LO:N:vis=4	!	!
8D\L	4.D/	16ff#'\LL	.
.	.	16gg'\	.
8c 8A 8F#\	.	16aa'\	.
.	.	16bb'\	.
8cJ 8A 8F#\	.	16ccc'\	.
.	.	16ccc#X'\JJ	.
=37	=37	=37	=37
!	!LO:N:vis=4	!	!
8G\L	4.G/	16.eee\LL	.
.	.	32ddd\JJk	.
8dJ 8B\	.	4bb\	.
8r	.	.	.
=38	=38	=38	=38
!	!LO:N:vis=4	!	!
8G\L	4.G/	(16bbsSsS\LL	.
.	.	16bb\	.
8d 8B\	.	16ccc\	.
.	.	16bb\	.
8dJ 8B\	.	16aa\	.
.	.	16gg\JJ)	.
=39	=39	=39	=39
!	!LO:N:vis=4	!	!
8C\L	4.C/	(16ff#\LL	.
.	.	16ee\	.
8A 8E\	.	16aa\	.
.	.	16gg\	.
8AJ 8E\	.	16ff#\	.
.	.	16ee\JJ)	.
*v	*v	*	*
=40	=40	=40
.	(16qqdd/LL	.
.	16qqee/JJ	.
8D\L	8dd\L)	.
8c 8A 8F#\	16cc#X\L	.
.	16dd\	.
8cJ 8A 8F#\	16ee\	.
.	16ff#\JJ	.
=41	=41	=41
!LO:TX:t=P:problem=mixed beam	!	!
8BL 8G\	(16aa\LL	.
.	16gg\JJ)	.
8GG/J	8gg\	.
==	==	==
*-	*-	*-
!!!system-decoration: {(*)}
!!!ENC: Berenika Jozajtis
!!!END: 2022-07-27
!!!ENC: Andrzej Kubiczek
!!!END: 2022-08-24
